icons/blood_vessel.svg

<svg width="48" height="48" viewBox="0 0 48 48" fill="none" xmlns="http://www.w3.org/2000/svg">
<path fill-rule="evenodd" clip-rule="evenodd" d="M18 25.3109V6H20V26.3634C20 27.5835 18.5966 28.3039 17.6103 27.5393L5.83566 18.412L7.06097 16.8313L12.9379 21.3869L12.213 14.8123L14.2009 14.5931L15.138 23.0924L18 25.3109ZM26 20.2538V6H28V19.4295L30.1434 18.3481L31.5234 12.0822L33.4766 12.5124L32.4474 17.1858L40.0496 13.3504L40.9505 15.1361L28.1806 21.5785C27.223 22.0616 26 21.4082 26 20.2538ZM41.5394 17.2746L42.4606 19.0498L36.3711 22.2097L41.7364 23.5148L41.2637 25.4582L33.6705 23.6112L28.5195 26.2841C28.1901 26.455 28 26.7783 28 27.1135V42H26V27.1135C26 26.0114 26.6242 25.0143 27.5983 24.5089L41.5394 17.2746ZM9.0889 26.9251L4.3927 23.335L5.60737 21.7461L18.8434 31.8648C19.5736 32.423 20 33.2911 20 34.2095V42H18V34.2095C18 33.9105 17.8611 33.6313 17.6288 33.4537L11.1181 28.4764L5.72709 29.8346L5.2385 27.8952L9.0889 26.9251Z" fill="black"/>
<path d="M25.2266 12.8495C25.518 13.3187 25.3739 13.9352 24.9047 14.2266C24.4355 14.518 23.819 14.3738 23.5276 13.9047C23.2362 13.4355 23.3804 12.819 23.8495 12.5276C24.3187 12.2362 24.9353 12.3803 25.2266 12.8495Z" fill="black"/>
<path d="M23.2266 21.8495C23.518 22.3187 23.3739 22.9352 22.9047 23.2266C22.4355 23.518 21.819 23.3738 21.5276 22.9047C21.2362 22.4355 21.3804 21.819 21.8495 21.5276C22.3187 21.2362 22.9353 21.3803 23.2266 21.8495Z" fill="black"/>
<path d="M24.2266 28.8495C24.518 29.3187 24.3739 29.9352 23.9047 30.2266C23.4355 30.518 22.819 30.3738 22.5276 29.9047C22.2362 29.4355 22.3804 28.819 22.8495 28.5276C23.3187 28.2362 23.9353 28.3803 24.2266 28.8495Z" fill="black"/>
<path d="M23.2266 37.8495C23.518 38.3187 23.3739 38.9352 22.9047 39.2266C22.4355 39.518 21.819 39.3738 21.5276 38.9047C21.2362 38.4355 21.3804 37.819 21.8495 37.5276C22.3187 37.2362 22.9353 37.3803 23.2266 37.8495Z" fill="black"/>
<path d="M23.2266 8.84952C23.518 9.31868 23.3739 9.93523 22.9047 10.2266C22.4355 10.518 21.819 10.3738 21.5276 9.90468C21.2362 9.43551 21.3804 8.81897 21.8495 8.52759C22.3187 8.23622 22.9353 8.38035 23.2266 8.84952Z" fill="black"/>
</svg>

<svg
  xmlns="http://www.w3.org/2000/svg"
  width="24"
  height="24"
  viewBox="0 0 24 24"
  fill="none"
  stroke="currentColor"
  stroke-width="2"
  stroke-linecap="round"
  stroke-linejoin="round"
>
  <path
    fill-rule="evenodd"
    d="M18 25.31V6h2v20.363c0 1.22-1.403 1.94-2.39 1.176L5.836 18.412l1.225-1.58 5.877 4.555-.725-6.575 1.988-.219.937 8.5zm8-5.056V6h2v13.43l2.143-1.082 1.38-6.266 1.954.43-1.03 4.674 7.603-3.836.9 1.786-12.77 6.442c-.957.484-2.18-.17-2.18-1.324m15.54-2.98.92 1.776-6.089 3.16 5.365 1.305-.472 1.943-7.594-1.847-5.15 2.673a.94.94 0 0 0-.52.83V42h-2V27.113c0-1.102.624-2.099 1.598-2.604zM9.088 26.926l-4.696-3.59 1.214-1.589 13.236 10.119A2.95 2.95 0 0 1 20 34.21V42h-2v-7.79a.95.95 0 0 0-.371-.756l-6.51-4.978-5.392 1.359-.489-1.94z"
    clip-rule="evenodd"
  />
  <path d="M25.227 12.85a1 1 0 1 1-1.7 1.055 1 1 0 0 1 1.7-1.055" />
  <path d="M23.227 21.85a1 1 0 1 1-1.7 1.055 1 1 0 0 1 1.7-1.056" />
  <path d="M24.227 28.85a1 1 0 1 1-1.7 1.055 1 1 0 0 1 1.7-1.056" />
  <path d="M23.227 37.85a1 1 0 1 1-1.7 1.055 1 1 0 0 1 1.7-1.056" />
  <path d="M23.227 8.85a1 1 0 1 1-1.7 1.055 1 1 0 0 1 1.7-1.055" />
</svg>
